X:7
T:The Flowers of the Forest
Z:Jack Campin, http://www.campin.me.uk
F:http://www.campin.me.uk/Music/Flodden.abc
I:last edit 28-05-2013
C:"modern air" 
B:G.F. Graham, The Popular Songs and Melodies of Scotland
S:Skene MS via Dauney
M:4/4
L:1/8
Q:1/8=76
K:AMix
z2| E2    EF         (EF)   A(B/c/)|(dc)           BA  (FA) ({F}E)C |\
 (3(B,CE) E>F        (EF)   AB     | c2            B>A  A2
z2| G2   (G/B/)(A/G/) F2 (3(EFA)   |(Ec)           BA  (FA)  (3(FE)C|\
    G2   (G/B/A/G/)  (F2  (3EF)A   |(Ec)       ({c}B>)A A2
z2|(ce)   e>f        (fe)   dc     |(ec)           BA  (F>A) (3(FE)C|\
    ce    e>f        (fe)   dc     |(B/c/d/c/) ({c}B>)A A3
 B| ce    e>f        (fe)   dc     | ec        ({c}B)A (FA)  (3(FE)C|\
 (3(B,CE) E>F         EF    AB     | c2            B>A  A2         ||

